X:14694
T:Ru Verde
R:Fandangu
C:Tradicional
S:Msica Tradicional Asturiana, (C) Tello & Tito. Asturies, 2001.
S:http://pagina.de/MusTradAst <telloytito@asturies.org>
A:Asturies
Z:Les cuarenta principales
M:3/4
L:1/4
Q:3/4=60
K:C
|E2 D|C2 C|CB,C|D3|G2 F|E2 D|FED|[1 C3:|[2 C2 C|
|:CED|CCC|CB,C|D2 D|DGF|EFE|DED|C2 C|
|CED|C2 C|CB,C|D2 D|DGF|EFE|DED|[1 C2 C:|[2 C3-|C3|
